brandFactory_export/3.Masa/Escudo _3Masa.svg

<?xml version="1.0" encoding="UTF-8"?>
<svg width="24px" height="24px" viewBox="0 0 24 24" version="1.1" xmlns="http://www.w3.org/2000/svg" xmlns:xlink="http://www.w3.org/1999/xlink">
    <title>3.Masa/Escudo _3Masa</title>
    <g id="Symbols" stroke="none" stroke-width="1" fill="none" fill-rule="evenodd">
        <g id="3.Masa/Escudo-_3Masa" fill="#5CB615" fill-rule="nonzero">
            <path d="M12.3495798,23.6235294 C12.2453782,23.6235294 12.1378151,23.6 12.0403361,23.5529412 C11.1462185,23.1260504 3.29747899,19.2605042 2.56470588,14.9983193 C1.99663866,11.707563 2.01671807,4.10084034 2.01671807,3.77815126 C2.01671807,3.54957983 2.1210084,3.33781513 2.29915966,3.19663866 C2.47731092,3.05882353 2.7092437,3.01176471 2.92436975,3.06554622 C4.84705882,3.37478992 5.86218487,2.68571429 7.15294118,1.81848739 C8.42689076,0.964705882 9.86890756,0 12.3462185,0 L12.3563025,0 C14.8336134,0.00336134454 16.2756303,0.968067227 17.5462185,1.82184874 C18.8369748,2.68907563 19.8588235,3.36806723 21.8084034,3.06218487 C22.0168067,3.02857143 22.2487395,3.08571429 22.410084,3.22689076 C22.5714286,3.36806723 22.6823529,3.56638655 22.6858059,3.78151261 C22.6858059,4.10420168 22.7058824,11.7109244 22.1478992,15.0016807 C21.4151261,19.2638655 13.5563025,23.1294118 12.6621849,23.5563025 C12.5613445,23.6 12.4537815,23.6235294 12.3495798,23.6235294 Z" id="Path"></path>
        </g>
    </g>
</svg>

<svg width="24" height="24" viewBox="0 0 24 24" xmlns="http://www.w3.org/2000/svg"><path d="M12.35 23.624a.717.717 0 01-.31-.071c-.894-.427-8.743-4.292-9.475-8.555-.568-3.29-.548-10.897-.548-11.22a.74.74 0 01.282-.581.734.734 0 01.625-.131c1.923.309 2.938-.38 4.229-1.248C8.427.965 9.869 0 12.346 0h.01c2.478.003 3.92.968 5.19 1.822 1.291.867 2.313 1.546 4.262 1.24a.75.75 0 01.602.165c.161.141.272.34.276.555 0 .322.02 7.929-.538 11.22-.733 4.262-8.592 8.127-9.486 8.554a.793.793 0 01-.312.068z" fill="#5CB615" fill-rule="nonzero"/></svg>
